X:1
T: Father O'Flynn
C:
R:Jig
Q:180
K:D
M:6/8
L:1/16
|:A2|d2A2F2 D2F2A2|d2c2d2 c2B2A2|d2c2d2 e2f2g2|f2e2d2 c2B2A2|
d2A2F2 D2F2A2|d2c2d2 c2B2A2|d2c2d2 e2f2g2|f2d2d2 d4:|
|:e2|f2e2f2 f2g2a2|e2f2e2 A2c2e2|d2c2d2 B2c2d2|c2A2A2 A6|
B2G2B2 B2G2B2|A2B2A2 D2F2A2|d2c2d2 e2f2g2|f2d2d2 d4:|
